Newaita/actions/22/document-open-recent.svg

<?xml version="1.0" encoding="UTF-8"?>
<svg xmlns="http://www.w3.org/2000/svg" xmlns:xlink="http://www.w3.org/1999/xlink" width="22pt" height="22pt" viewBox="0 0 22 22" version="1.1">
<g id="surface1">
<path style=" stroke:none;fill-rule:nonzero;fill:rgb(25.882354%,25.882354%,25.882354%);fill-opacity:1;" d="M 10.914062 1.082031 L 4.546875 1.082031 C 3.539062 1.082031 2.730469 1.894531 2.730469 2.902344 L 2.730469 19.273438 C 2.730469 20.28125 3.539062 21.09375 4.546875 21.09375 L 17.28125 21.09375 C 18.289062 21.09375 19.101562 20.28125 19.101562 19.273438 L 19.101562 8.359375 C 19.101562 8.175781 19.03125 8.003906 18.902344 7.875 L 12.308594 1.28125 C 12.179688 1.152344 12.003906 1.082031 11.824219 1.082031 Z M 5.003906 2.445312 L 10.90625 2.445312 L 10.90625 7.359375 C 10.90625 8.367188 11.71875 9.179688 12.726562 9.179688 L 17.738281 9.179688 L 17.738281 9.269531 C 17.738281 9.269531 17.738281 9.273438 17.738281 9.277344 L 17.738281 18.820312 C 17.738281 19.324219 17.332031 19.726562 16.828125 19.726562 L 5.003906 19.726562 C 4.5 19.726562 4.09375 19.324219 4.09375 18.820312 L 4.09375 3.355469 C 4.09375 2.851562 4.5 2.445312 5.003906 2.445312 Z M 12.269531 3.175781 L 16.914062 7.816406 L 13.179688 7.816406 C 12.675781 7.816406 12.269531 7.410156 12.269531 6.90625 Z M 12.269531 3.175781 "/>
<path style=" stroke:none;fill-rule:nonzero;fill:rgb(47.058824%,56.470591%,61.176473%);fill-opacity:1;" d="M 7.503906 11.449219 C 6.289062 12.039062 5.457031 13.28125 5.457031 14.726562 C 5.457031 16.742188 7.082031 18.363281 9.097656 18.363281 C 10.628906 18.363281 11.933594 17.425781 12.472656 16.089844 L 10.917969 16.089844 C 10.503906 16.644531 9.84375 17 9.097656 17 C 7.835938 17 6.820312 15.984375 6.820312 14.726562 C 6.820312 14.085938 7.082031 13.511719 7.503906 13.097656 Z M 7.503906 11.449219 "/>
<path style=" stroke:none;fill-rule:nonzero;fill:rgb(47.058824%,56.470591%,61.176473%);fill-opacity:1;" d="M 9.097656 10.175781 C 9.472656 10.175781 9.777344 10.484375 9.777344 10.859375 L 9.777344 14.496094 C 9.777344 14.875 9.472656 15.179688 9.097656 15.179688 C 8.71875 15.179688 8.414062 14.875 8.414062 14.496094 L 8.414062 10.859375 C 8.414062 10.484375 8.71875 10.175781 9.097656 10.175781 Z M 9.097656 10.175781 "/>
<path style=" stroke:none;fill-rule:nonzero;fill:rgb(47.058824%,56.470591%,61.176473%);fill-opacity:1;" d="M 13.414062 14.496094 C 13.414062 14.871094 13.109375 15.179688 12.730469 15.179688 L 9.09375 15.179688 C 8.71875 15.179688 8.410156 14.871094 8.410156 14.496094 C 8.410156 14.117188 8.71875 13.8125 9.09375 13.8125 L 12.730469 13.8125 C 13.109375 13.8125 13.414062 14.117188 13.414062 14.496094 Z M 13.414062 14.496094 "/>
</g>
</svg>

<svg xmlns="http://www.w3.org/2000/svg" width="22pt" height="22pt" viewBox="0 0 22 22"><path d="M10.914 1.082H4.547a1.814 1.814 0 0 0-1.817 1.82v16.371c0 1.008.81 1.82 1.817 1.82H17.28c1.008 0 1.82-.812 1.82-1.82V8.36a.68.68 0 0 0-.199-.484L12.31 1.281a.686.686 0 0 0-.485-.199zm-5.91 1.363h5.902V7.36c0 1.008.813 1.82 1.82 1.82h5.012v9.641a.905.905 0 0 1-.91.907H5.004a.905.905 0 0 1-.91-.907V3.355c0-.503.406-.91.91-.91zm7.266.73l4.644 4.641H13.18a.909.909 0 0 1-.91-.91zm0 0" fill="#424242"/><path d="M7.504 11.45a3.632 3.632 0 0 0-2.047 3.277 3.631 3.631 0 0 0 3.64 3.636 3.632 3.632 0 0 0 3.376-2.273h-1.555a2.262 2.262 0 0 1-1.82.91 2.271 2.271 0 0 1-2.278-2.273c0-.641.262-1.215.684-1.63zm0 0" fill="#78909c"/><path d="M9.098 10.176c.375 0 .68.308.68.683v3.637a.681.681 0 1 1-1.364 0V10.86c0-.375.305-.683.684-.683zm0 0" fill="#78909c"/><path d="M13.414 14.496a.684.684 0 0 1-.684.684H9.094a.684.684 0 0 1 0-1.367h3.636c.38 0 .684.304.684.683zm0 0" fill="#78909c"/></svg>
